svgs/regular/pallet-box.svg

<svg xmlns="http://www.w3.org/2000/svg" viewBox="0 0 640 512"><!--! Font Awesome Pro 6.6.0 by @fontawesome - https://fontawesome.com License - https://fontawesome.com/license (Commercial License) Copyright 2024 Fonticons, Inc. --><path d="M384 48l0 80c0 5.9-3.2 11.3-8.5 14.1s-11.5 2.5-16.4-.8L320 115.2l-39.1 26.1c-4.9 3.3-11.2 3.6-16.4 .8s-8.5-8.2-8.5-14.1l0-80-80 0 0 192 288 0 0-192-80 0zM128 48c0-26.5 21.5-48 48-48L464 0c26.5 0 48 21.5 48 48l0 192c0 26.5-21.5 48-48 48l-288 0c-26.5 0-48-21.5-48-48l0-192zM0 344c0-13.3 10.7-24 24-24l64 0 232 0 232 0 64 0c13.3 0 24 10.7 24 24s-10.7 24-24 24l-40 0 0 96 40 0c13.3 0 24 10.7 24 24s-10.7 24-24 24l-64 0-232 0L88 512l-64 0c-13.3 0-24-10.7-24-24s10.7-24 24-24l40 0 0-96-40 0c-13.3 0-24-10.7-24-24zM112 464l184 0 0-96-184 0 0 96zm232 0l184 0 0-96-184 0 0 96z"/></svg>

<svg xmlns="http://www.w3.org/2000/svg" viewBox="0 0 640 512"><!--! Font Awesome Pro 6.5.2 by @fontawesome - https://fontawesome.com License - https://fontawesome.com/license (Commercial License) Copyright 2024 Fonticons, Inc. --><path d="M384 48v80c0 5.9-3.2 11.3-8.5 14.1s-11.5 2.5-16.4-.8L320 115.2l-39.1 26.1c-4.9 3.3-11.2 3.6-16.4 .8s-8.5-8.2-8.5-14.1V48H176V240H464V48H384zM128 48c0-26.5 21.5-48 48-48H464c26.5 0 48 21.5 48 48V240c0 26.5-21.5 48-48 48H176c-26.5 0-48-21.5-48-48V48zM0 344c0-13.3 10.7-24 24-24H88 320 552h64c13.3 0 24 10.7 24 24s-10.7 24-24 24H576v96h40c13.3 0 24 10.7 24 24s-10.7 24-24 24H552 320 88 24c-13.3 0-24-10.7-24-24s10.7-24 24-24H64V368H24c-13.3 0-24-10.7-24-24zM112 464H296V368H112v96zm232 0H528V368H344v96z"/></svg>
